!!! OTL: Berkowitz561
!!! Chapter: 1
!!! Section: V
!!! Page: 142
!!! Mode: 
!!! Encoder: DJB
**kern
*staff1
*I"Piano
=1-
*clefG2
*k[]
*C:
*M4/4
4r
4g-/
4a/
4e-/
=2
2.f/
4r
=3
4r
4f/
4e-/
4a-/
=4
2.a/
4g/
=5
2cc\
2b\
=6
4r
4f#/
4g#/
4d#/
=7
2.A#/
4r
=8
4c/
4c/
4f/
4e-/
=9
2a-/
8r
8r
4f#/
=10
2b\
4a/
4e/
=11
!!linebreak:original
4r
4a/
4g/
4d/
=12
4e-/
4a-/
4g-/
4a-/
=13
4a/
4e/
4B/
4r
=14
4B-/
4B-/
4e-/
4e-/
=15
2d/
2r
==
*-
